static/assets/img/icons/theme/devices/gamepad-1.svg

<svg height="24" viewBox="0 0 24 24" width="24" xmlns="http://www.w3.org/2000/svg"><g fill="none" fill-rule="evenodd"><path d="m0 0h24v24h-24z" opacity="0"/><g fill="#000"><path d="m12.9486833 9.31622777-1.8973666-.63245554c.7647076-2.29412288 1.9913605-3.72521795 3.7061477-4.15391473.8928226-.22320566 2.2425356-1.66034691 2.2425356-2.5298575h2c0 1.79715607-1.9836203 4.02668149-3.7574644 4.4701425-.9518795.23796988-1.7252266 1.14020815-2.2938523 2.84608527z" fill-rule="nonzero" opacity=".3"/><path d="m7.05661608 8.02781729c.14520951-.01835707.29319194-.02781729.44338392-.02781729h9c.150192 0 .2981744.00946022.4433839.02781729.1830405-.01839598.3687281-.02781729.5566161-.02781729 3.0375661 0 5.5 2.4624339 5.5 5.5s-2.4624339 5.5-5.5 5.5c-1.7079369 0-3.2340462-.7784967-4.2428379-2h-2.5143242c-1.00879166 1.2215033-2.53490096 2-4.2428379 2-3.03756612 0-5.5-2.4624339-5.5-5.5s2.46243388-5.5 5.5-5.5c.18788804 0 .37357561.00942131.55661608.02781729zm-1.55661608 1.97218271c-.27614237 0-.5.2238576-.5.5v1c0 .2761424.22385763.5.5.5h1c.27614237 0 .5-.2238576.5-.5v-1c0-.2761424-.22385763-.5-.5-.5zm2 2c-.27614237 0-.5.2238576-.5.5v1c0 .2761424.22385763.5.5.5h1c.27614237 0 .5-.2238576.5-.5v-1c0-.2761424-.22385763-.5-.5-.5zm11.5 0c.5522847 0 1-.4477153 1-1s-.4477153-1-1-1-1 .4477153-1 1 .4477153 1 1 1zm-1 3c.5522847 0 1-.4477153 1-1s-.4477153-1-1-1-1 .4477153-1 1 .4477153 1 1 1zm-12.5-1c-.27614237 0-.5.2238576-.5.5v1c0 .2761424.22385763.5.5.5h1c.27614237 0 .5-.2238576.5-.5v-1c0-.2761424-.22385763-.5-.5-.5zm-2-2c-.27614237 0-.5.2238576-.5.5v1c0 .2761424.22385763.5.5.5h1c.27614237 0 .5-.2238576.5-.5v-1c0-.2761424-.22385763-.5-.5-.5z"/></g></g></svg>

<svg width="24px" height="24px" viewBox="0 0 24 24" version="1.1" xmlns="http://www.w3.org/2000/svg" xmlns:xlink="http://www.w3.org/1999/xlink">
    <title>Icon For Gamepad#1</title>
    <g stroke="none" stroke-width="1" fill="none" fill-rule="evenodd">
        <rect opacity="0" x="0" y="0" width="24" height="24"></rect>
        <path d="M12.9486833,9.31622777 L11.0513167,8.68377223 C11.8160243,6.38964935 13.0426772,4.95855428 14.7574644,4.5298575 C15.650287,4.30665184 17,2.86951059 17,2 L19,2 C19,3.79715607 17.0163797,6.02668149 15.2425356,6.4701425 C14.2906561,6.70811238 13.517309,7.61035065 12.9486833,9.31622777 Z" fill="#000000" fill-rule="nonzero" opacity="0.3"></path>
        <path d="M7.05661608,8.02781729 C7.20182559,8.00946022 7.34980802,8 7.5,8 L16.5,8 C16.650192,8 16.7981744,8.00946022 16.9433839,8.02781729 C17.1264244,8.00942131 17.312112,8 17.5,8 C20.5375661,8 23,10.4624339 23,13.5 C23,16.5375661 20.5375661,19 17.5,19 C15.7920631,19 14.2659538,18.2215033 13.2571621,17 L10.7428379,17 C9.73404624,18.2215033 8.20793694,19 6.5,19 C3.46243388,19 1,16.5375661 1,13.5 C1,10.4624339 3.46243388,8 6.5,8 C6.68788804,8 6.87357561,8.00942131 7.05661608,8.02781729 Z M5.5,10 C5.22385763,10 5,10.2238576 5,10.5 L5,11.5 C5,11.7761424 5.22385763,12 5.5,12 L6.5,12 C6.77614237,12 7,11.7761424 7,11.5 L7,10.5 C7,10.2238576 6.77614237,10 6.5,10 L5.5,10 Z M7.5,12 C7.22385763,12 7,12.2238576 7,12.5 L7,13.5 C7,13.7761424 7.22385763,14 7.5,14 L8.5,14 C8.77614237,14 9,13.7761424 9,13.5 L9,12.5 C9,12.2238576 8.77614237,12 8.5,12 L7.5,12 Z M19,12 C19.5522847,12 20,11.5522847 20,11 C20,10.4477153 19.5522847,10 19,10 C18.4477153,10 18,10.4477153 18,11 C18,11.5522847 18.4477153,12 19,12 Z M18,15 C18.5522847,15 19,14.5522847 19,14 C19,13.4477153 18.5522847,13 18,13 C17.4477153,13 17,13.4477153 17,14 C17,14.5522847 17.4477153,15 18,15 Z M5.5,14 C5.22385763,14 5,14.2238576 5,14.5 L5,15.5 C5,15.7761424 5.22385763,16 5.5,16 L6.5,16 C6.77614237,16 7,15.7761424 7,15.5 L7,14.5 C7,14.2238576 6.77614237,14 6.5,14 L5.5,14 Z M3.5,12 C3.22385763,12 3,12.2238576 3,12.5 L3,13.5 C3,13.7761424 3.22385763,14 3.5,14 L4.5,14 C4.77614237,14 5,13.7761424 5,13.5 L5,12.5 C5,12.2238576 4.77614237,12 4.5,12 L3.5,12 Z" fill="#000000"></path>
    </g>
</svg>
